X:797
T:Mist Covered Mountains #3, The
C:Joe Buchanan's Scottish Tome - Page 541.2
I:541 2
Z:Carl Allison
R:Slow Air
L:1/4
M:3/4
K:C
"Am"A3 | "Am"A3 | "C"e>A B | "Em"(A G E) | "G"G3 | "G"G3 | "Bm"B>A B | "Am"(A G E) |
"Am"c3 | "G"d3 | "C"e>^f g | "Em"(B A G) | "Am"A>B e | "G"(d c B) | "Am"A3- | "Am"A3 |
"Am"e3 | "Am"e3 | "G"d>e g | "Am"e>d B | "G"G2 G | "Bm"(d2 B) | "Am"(e2 e) | "Bm"(d c B) |
"Am"A3 | c3 | "G"d>e g | "Em"B>A G | "Am"A>B e | "G"(d c B) | "Am"A3- | "Am"A3 :|
